img/image/catalogue-value-black3.svg

<svg width="19" height="16" viewBox="0 0 19 16" fill="none" xmlns="http://www.w3.org/2000/svg">
<g opacity="0.6">
<path d="M4.91873 1.19877C9.14997 1.91741 13.3812 1.69317 17.6125 0.526038C18.0649 0.401302 18.5124 0.739218 18.5124 1.20857V12.4962C18.5124 12.9655 18.0649 13.3034 17.6125 13.1787C17.3042 13.0938 16.9962 13.0138 16.6879 12.9387C15.5984 12.6737 14.5092 12.4711 13.4197 12.3309M6.09269 12.3309C5.00319 12.4711 3.91403 12.6737 2.82453 12.9387C2.51621 13.0138 2.20825 13.0938 1.89993 13.1787C1.44749 13.3034 0.999993 12.9655 0.999993 12.4962V1.20857C0.999993 0.739218 1.44749 0.401302 1.89993 0.526038C2.49617 0.690646 3.09719 0.837412 3.70219 0.966139" stroke="#0B101A" stroke-width="0.5" stroke-miterlimit="10" stroke-linecap="round" stroke-linejoin="round"/>
<path d="M9.75619 8.09619C11.8007 8.09619 13.4581 9.7536 13.4581 11.7981C13.4581 13.8426 11.8007 15.5 9.75619 15.5C7.71168 15.5 6.05427 13.8426 6.05427 11.7981C6.05427 9.7536 7.71168 8.09619 9.75619 8.09619ZM9.75619 9.04757C8.40182 9.04757 7.27376 10.0318 7.04769 11.3224H8.73131C8.93508 11.0964 9.31799 11.054 9.75619 11.054C10.1944 11.054 10.5773 11.0964 10.7811 11.3224H12.4647C12.2386 10.0318 11.1106 9.04757 9.75619 9.04757ZM12.4647 12.2738H10.8366C10.7171 12.5435 10.5015 12.759 10.2319 12.8785V14.5066C11.3678 14.3076 12.2657 13.4098 12.4647 12.2738ZM9.2805 14.5066V12.8785C9.01084 12.759 8.79529 12.5435 8.67581 12.2738H7.04769C7.24666 13.4098 8.14456 14.3076 9.2805 14.5066Z" stroke="#0B101A" stroke-width="0.5" stroke-miterlimit="10" stroke-linecap="round" stroke-linejoin="round"/>
<path d="M14.9225 9.68726L11.5861 3.54202C11.4906 3.36654 11.3066 3.25696 11.1068 3.25696H8.40563C8.20584 3.25696 8.0219 3.36654 7.92641 3.54202L2.82455 12.9388M16.6879 12.9388L15.5139 10.7765M9.75623 3.25699V4.07846M9.75623 5.42068V6.88369" stroke="#0B101A" stroke-width="0.5" stroke-miterlimit="10" stroke-linecap="round" stroke-linejoin="round"/>
</g>
</svg>

<svg width="19" height="16" fill="none" xmlns="http://www.w3.org/2000/svg"><g opacity=".6" stroke="#0B101A" stroke-width=".5" stroke-miterlimit="10" stroke-linecap="round" stroke-linejoin="round"><path d="M4.919 1.199c4.231.718 8.462.494 12.694-.673a.71.71 0 0 1 .9.683v11.287a.71.71 0 0 1-.9.683 30.044 30.044 0 0 0-4.193-.848m-7.327 0a30.043 30.043 0 0 0-4.193.848.71.71 0 0 1-.9-.683V1.21a.71.71 0 0 1 .9-.683 31.07 31.07 0 0 0 1.802.44"/><path d="M9.756 8.096a3.702 3.702 0 1 1 0 7.404 3.702 3.702 0 0 1 0-7.404Zm0 .952a2.754 2.754 0 0 0-2.708 2.274H8.73c.204-.226.587-.268 1.025-.268.438 0 .821.042 1.025.268h1.684a2.754 2.754 0 0 0-2.709-2.274Zm2.709 3.226h-1.628c-.12.27-.335.485-.605.605v1.628a2.757 2.757 0 0 0 2.233-2.233ZM9.28 14.507v-1.628a1.188 1.188 0 0 1-.605-.605H7.048a2.757 2.757 0 0 0 2.232 2.233Z"/><path d="m14.922 9.687-3.336-6.145a.546.546 0 0 0-.48-.285h-2.7c-.2 0-.384.11-.48.285l-5.101 9.397m13.863 0-1.174-2.162m-5.758-7.52v.821m0 1.343v1.463"/></g></svg>
